X:1
T:G Major Oliver Holden, 1800
T:Isaac Watts, 1706 Worshipping With Fear 86. 86 (C. M.)
T:Sweet Surprise No copyright. Transcribed from Plain Psalmody, 1800.
%%score [ 1 2 3 4 ]
L:1/8
M:2/4
K:G
V:1 treble nm="Treble" snm="Tr."
V:2 treble nm="Counter" snm="C."
V:3 treble-8 nm="Tenor" snm="T."
V:4 bass nm="Bass" snm="B."
V:1
 d2 cB | BA Bc | d3 d | ed cB | c3 c | cc Bd | e/d/ c/B/ A>A | BB BA | B2 d2 | g4 | d2 cB | A3 A | %12
w: 1.~An- gels are|lost in sweet sur-|prise *||* And|hum- ble awe runs|through * the * skies, *||||||
 G4 |] %13
w: |
V:2
 z4 | z4 | z2 z G | GG EG | E3 z | z4 | z2 z z/ D/ | GG GD | D2 G2 | D4 | G2 DD | F3 F | G4 |] %13
w: ||If|Thou un- veil Thy|grace.||And|hum- ble awe runs|through the|skies,|When wrath ar-|rays Thy|face.|
V:3
 B2 AG | GF GA | B3 B | GG EG | G3 z | z4 | z2 z z/ d/ | dd dc | B2 B2 | B4 | B2 AB | d3 c | B4 |] %13
V:4
 z4 | z4 | z2 z G, | CB, A,G, | C,3 C, | C,C, G,B, | C/B,/ A,/G,/ D,>D, | G,G, G,D, | G,2 G,2 | %9
w: ||||* And|hum- ble awe runs|through * the * skies, *|||
 G,4 | B,2 A,G, | D,3 D, | G,4 |] %13
w: ||||

